svgs/sharp-solid/earth-oceania.svg

<svg xmlns="http://www.w3.org/2000/svg" viewBox="0 0 512 512"><!--! Font Awesome Pro 6.4.0 by @fontawesome - https://fontawesome.com License - https://fontawesome.com/license (Commercial License) Copyright 2023 Fonticons, Inc. --><path d="M256 512A256 256 0 1 0 256 0a256 256 0 1 0 0 512zM411.3 379.3l-32 32L368 422.6 345.4 400l11.3-11.3 32-32L400 345.4 422.6 368l-11.3 11.3zM288 416v32H224V416h64zM448 256v64H416V256h32zM192 160V128h96v64H224l-32-32zM96 352V288l64-64h32v32h32V224h32l64 64v96H224l-32-32H96z"/></svg>

<svg xmlns="http://www.w3.org/2000/svg" viewBox="0 0 512 512"><!--! Font Awesome Pro 6.6.0 by @fontawesome - https://fontawesome.com License - https://fontawesome.com/license (Commercial License) Copyright 2024 Fonticons, Inc. --><path d="M256 512A256 256 0 1 0 256 0a256 256 0 1 0 0 512zM411.3 379.3l-32 32L368 422.6 345.4 400l11.3-11.3 32-32L400 345.4 422.6 368l-11.3 11.3zM288 416l0 32-64 0 0-32 64 0zM448 256l0 64-32 0 0-64 32 0zM192 160l0-32 96 0 0 64-64 0-32-32zM96 352l0-64 64-64 32 0 0 32 32 0 0-32 32 0 64 64 0 96-96 0-32-32-96 0z"/></svg>
